svg/l/IN.svg

<svg width="32" height="24" viewBox="0 0 32 24" fill="none" xmlns="http://www.w3.org/2000/svg">
<mask id="mask0" mask-type="alpha" maskUnits="userSpaceOnUse" x="0" y="0" width="32" height="24">
<rect width="32" height="24" fill="white"/>
</mask>
<g mask="url(#mask0)">
<path fill-rule="evenodd" clip-rule="evenodd" d="M0 0V24H32V0H0Z" fill="#F7FCFF"/>
<mask id="mask1" mask-type="alpha" maskUnits="userSpaceOnUse" x="0" y="0" width="32" height="24">
<path fill-rule="evenodd" clip-rule="evenodd" d="M0 0V24H32V0H0Z" fill="white"/>
</mask>
<g mask="url(#mask1)">
<path fill-rule="evenodd" clip-rule="evenodd" d="M0 0V8H32V0H0Z" fill="#FF8C1A"/>
<path fill-rule="evenodd" clip-rule="evenodd" d="M0 16V24H32V16H0Z" fill="#5EAA22"/>
<path fill-rule="evenodd" clip-rule="evenodd" d="M12 12C12 14.2091 13.7909 16 16 16C18.2091 16 20 14.2091 20 12C20 9.79086 18.2091 8 16 8C13.7909 8 12 9.79086 12 12ZM19 12C19 13.6569 17.6569 15 16 15C14.3431 15 13 13.6569 13 12C13 10.3431 14.3431 9 16 9C17.6569 9 19 10.3431 19 12Z" fill="#3D58DB"/>
<path fill-rule="evenodd" clip-rule="evenodd" d="M15.9944 12.8607L15.4236 15.9813L15.7551 12.8263L14.3282 15.6596L15.5351 12.7258L13.3678 15.0424L15.3523 12.5675L12.6201 14.1796L15.2216 12.364L12.1459 13.1411L15.1534 12.132L11.9834 12.011L15.1534 11.8901L12.1459 10.881L15.2216 11.6581L12.6201 9.84251L15.3523 11.4546L13.3678 8.9797L15.5351 11.2963L14.3282 8.36247L15.7551 11.1958L15.4236 8.04083L15.9944 11.1614L16.5653 8.04083L16.2338 11.1958L17.6607 8.36247L16.4538 11.2963L18.6211 8.9797L16.6366 11.4546L19.3688 9.84251L16.7673 11.6581L19.843 10.881L16.8355 11.8901L20.0055 12.011L16.8355 12.132L19.843 13.1411L16.7673 12.364L19.3688 14.1796L16.6366 12.5675L18.6211 15.0424L16.4538 12.7258L17.6607 15.6596L16.2338 12.8263L16.5653 15.9813L15.9944 12.8607Z" fill="#3D58DB"/>
</g>
</g>
</svg>

<svg width="32" height="24" fill="none" xmlns="http://www.w3.org/2000/svg">
  <mask id="a" maskUnits="userSpaceOnUse" x="0" y="0" width="32" height="24">
    <path fill="#fff" d="M0 0h32v24H0z"/>
  </mask>
  <g mask="url(#a)">
    <path fill-rule="evenodd" clip-rule="evenodd" d="M0 0v24h32V0H0z" fill="#F7FCFF"/>
    <mask id="b" maskUnits="userSpaceOnUse" x="0" y="0" width="32" height="24">
      <path fill-rule="evenodd" clip-rule="evenodd" d="M0 0v24h32V0H0z" fill="#fff"/>
    </mask>
    <g mask="url(#b)" fill-rule="evenodd" clip-rule="evenodd">
      <path d="M0 0v8h32V0H0z" fill="#FF8C1A"/>
      <path d="M0 16v8h32v-8H0z" fill="#5EAA22"/>
      <path d="M12 12a4 4 0 108 0 4 4 0 00-8 0zm7 0a3 3 0 11-6 0 3 3 0 016 0z" fill="#3D58DB"/>
      <path d="M15.995 12.86l-.571 3.121.331-3.155-1.427 2.834 1.207-2.934-2.167 2.316 1.984-2.474-2.732 1.612 2.602-1.816-3.076.777 3.007-1.009-3.17-.121 3.17-.12-3.007-1.01 3.076.777-2.602-1.815 2.732 1.612-1.984-2.475 2.167 2.316-1.207-2.934 1.427 2.834-.331-3.155.57 3.12.571-3.12-.331 3.155 1.427-2.834-1.207 2.934L18.62 8.98l-1.984 2.475 2.732-1.612-2.602 1.815 3.076-.777-3.008 1.01 3.17.12-3.17.121 3.008 1.01-3.076-.778 2.602 1.816-2.732-1.612 1.984 2.474-2.167-2.316 1.207 2.934-1.427-2.834.331 3.155-.57-3.12z" fill="#3D58DB"/>
    </g>
  </g>
</svg>
